packages/core/src/svgs/tokens/branded/WGC.svg

<svg width="24" height="24" viewBox="0 0 24 24" fill="none" xmlns="http://www.w3.org/2000/svg">
<path d="M21.4513 7.22638L21.1141 7.20766C21.0877 7.20728 21.0618 7.20021 21.0389 7.18709C21.0159 7.17399 20.9966 7.15526 20.9829 7.1327C20.281 6.00037 19.3514 5.0262 18.2534 4.27192C16.2338 2.86608 13.7711 2.24431 11.3263 2.52298C9.47734 2.73536 7.80963 3.39745 6.33552 4.50303C5.31838 5.25551 4.46336 6.20532 3.82157 7.2957C3.1798 8.38609 2.76442 9.59463 2.60028 10.8492C2.54251 11.4408 2.52581 12.0356 2.55031 12.6293C2.708 14.9224 3.71197 17.075 5.36736 18.6695C6.3348 19.6184 7.48439 20.3617 8.74683 20.8545C10.0093 21.3472 11.3585 21.5793 12.7129 21.5366C13.7311 21.4866 14.6243 21.3491 15.3988 21.1055C17.7159 20.4146 19.7014 18.9022 20.9829 16.8519C21.0141 16.8019 21.1015 16.7894 21.2453 16.8082H21.2515C21.289 16.8082 21.3452 16.8082 21.4076 16.7768L21.4513 16.7644C21.2203 17.3015 20.808 17.9012 20.2022 18.5571C19.2775 19.5982 18.149 20.4385 16.8867 21.0262C15.6243 21.614 14.2549 21.9363 12.8629 21.9738C12.4552 22.0101 12.0449 22.0038 11.6386 21.955C11.3949 21.9425 11.2139 21.9238 11.0888 21.9113C8.93073 21.675 6.90433 20.756 5.30489 19.2879C5.00485 19.0417 4.72878 18.7678 4.4804 18.4696C3.55226 17.4337 2.85728 16.2106 2.44241 14.883C2.02755 13.5554 1.90245 12.1544 2.0756 10.7743C2.37852 8.46469 3.49465 6.33871 5.2237 4.77786C7.12834 3.03349 9.60588 2.04693 12.1882 2.00455C14.8912 1.95938 17.5111 2.93905 19.5214 4.74664C19.9523 5.14016 20.3708 5.59612 20.7706 6.10831C21.0578 6.47685 21.2827 6.84538 21.4576 7.22638H21.4513Z" fill="#1483CB"/>
<path d="M21.4509 7.22632L21.5821 7.61983C21.5884 7.63857 21.5821 7.65106 21.5572 7.65106H20.1955C20.1828 7.65064 20.1703 7.64698 20.1595 7.64042C20.1486 7.63386 20.1394 7.62462 20.1331 7.61359C19.3988 6.40937 18.3827 5.40182 17.1723 4.67786C15.4493 3.64674 13.4383 3.20255 11.4413 3.41206C9.44429 3.62155 7.56925 4.47342 6.09777 5.83966C5.20867 6.66546 4.50798 7.67317 4.04342 8.79417C3.57885 9.9152 3.36131 11.1231 3.40564 12.3357C3.49552 14.4052 4.34501 16.3688 5.79171 17.8512C6.50302 18.5933 7.33785 19.2062 8.25896 19.6625C9.84013 20.4522 11.6141 20.7728 13.3718 20.587C15.1294 20.401 16.797 19.7161 18.1779 18.6131C18.9534 17.9774 19.6183 17.2176 20.1455 16.3646C20.1812 16.3503 20.2195 16.3439 20.258 16.3458H21.5572C21.5821 16.3458 21.5884 16.3583 21.5821 16.3771L21.4572 16.7644L21.4135 16.7767C21.3626 16.7998 21.3069 16.8106 21.2511 16.8081C21.1074 16.783 21.02 16.8018 20.9888 16.8518C20.1118 18.2617 18.8953 19.4293 17.4505 20.2477C16.0059 21.066 14.3789 21.5091 12.7188 21.5365C12.3958 21.5563 12.0716 21.546 11.7506 21.5052C10.3217 21.4123 8.92908 21.0149 7.66643 20.3393C6.40378 19.6638 5.30028 18.7261 4.43002 17.5888C2.96686 15.6659 2.3124 13.2475 2.60612 10.8491C2.77103 9.59412 3.18737 8.38524 3.83025 7.29482C4.47312 6.20441 5.32931 5.25486 6.34761 4.50296C8.47083 2.8972 11.1421 2.19457 13.7807 2.54789C15.8529 2.81847 17.7904 3.724 19.3273 5.14009C19.9668 5.72852 20.5236 6.4009 20.9825 7.13887C21.0137 7.18259 21.0574 7.20759 21.1074 7.21383L21.4509 7.23257V7.22632Z" fill="#21A2DC"/>
<path d="M18.8217 6.32072C17.9787 6.34584 17.1352 6.35418 16.2918 6.3457C16.0483 6.3457 15.8796 6.31446 15.7734 6.25825C14.1754 5.42005 12.3147 5.2342 10.5824 5.73978C8.85022 6.24534 7.38155 7.40293 6.48529 8.96911C5.83187 10.166 5.58214 11.5417 5.77322 12.8917C5.91965 13.8708 6.28709 14.8039 6.84768 15.6198C7.40828 16.4358 8.14732 17.1135 9.00876 17.6015C10.2735 18.3365 11.7381 18.6535 13.1937 18.5071C14.7717 18.362 16.2516 17.6781 17.3849 16.5708C17.3849 16.5458 17.3662 16.5333 17.3412 16.5333C16.5906 16.5884 15.8361 16.5251 15.1051 16.3459L15.6236 16.0211C15.6459 16.0051 15.6714 15.994 15.6982 15.9886C15.7251 15.9833 15.753 15.9837 15.7797 15.9898C15.9857 16.0211 16.1982 16.0398 16.4106 16.0335C16.9102 16.0211 17.4225 15.9712 17.9346 15.8774C17.8284 16.0961 17.6848 16.2835 17.4974 16.4396C17.4849 16.4459 17.4849 16.4584 17.4849 16.477L17.5161 16.5021L17.7035 16.4958C18.7029 16.3709 19.5587 16.0961 20.2832 15.6714C19.6397 16.917 18.695 17.982 17.5349 18.7695C15.791 19.9641 13.6776 20.496 11.5759 20.2686C9.45227 20.0187 7.65957 19.1567 6.2042 17.6826C4.90884 16.3889 4.09923 14.6879 3.91184 12.8668C3.79316 11.8237 3.88061 10.7992 4.17419 9.78106C4.72126 7.88018 5.93402 6.23952 7.59087 5.15891C9.37677 3.97907 11.5262 3.47826 13.6497 3.74726C15.3487 3.98462 16.8541 4.62799 18.1595 5.69608C18.3911 5.89237 18.6122 6.10087 18.8217 6.32072Z" fill="#86B22B"/>
<path d="M18.8219 6.32064C19.1966 6.68916 19.5339 7.10767 19.8525 7.58863C19.8837 7.63859 19.8713 7.66357 19.8088 7.66357C18.3825 7.65741 16.9564 7.65741 15.5301 7.66357C15.2741 7.66357 15.0929 7.64484 14.9929 7.59487C14.4537 7.3205 13.8736 7.13489 13.2752 7.0452C12.923 7.00091 12.5677 6.98838 12.2134 7.00772C12.076 7.00772 11.9385 7.01397 11.7948 7.03271C11.0238 7.14247 10.285 7.41502 9.62745 7.83223C8.91819 8.28134 8.33353 8.90188 7.92743 9.63656C7.52132 10.3713 7.30686 11.1965 7.30383 12.036C7.30112 13.2837 7.79038 14.4822 8.6655 15.3715C9.53461 16.2955 10.7125 16.8689 11.976 16.983C13.06 17.1013 14.154 16.8786 15.1054 16.3458C15.8487 16.527 16.592 16.5895 17.3415 16.5332C17.3665 16.5332 17.3852 16.5458 17.3852 16.5707C17.3852 16.5895 17.3791 16.6019 17.3665 16.6144L17.0542 16.8642C15.7052 18.0257 13.9596 18.6209 12.1821 18.5257C11.0646 18.4874 9.97432 18.1718 9.00905 17.6075C8.04972 17.0643 7.24393 16.2866 6.66712 15.3472C6.09031 14.4077 5.76135 13.3372 5.71103 12.2358C5.67356 11.0615 5.93591 9.97468 6.48557 8.96904C7.15381 7.7452 8.18941 6.76205 9.44628 6.15824C10.3014 5.73154 11.2394 5.49702 12.1946 5.47115C13.4371 5.41151 14.6729 5.68541 15.7737 6.26442C15.8799 6.31439 16.0486 6.34562 16.2921 6.34562H16.3546C17.2416 6.35186 18.0598 6.34563 18.8219 6.32064Z" fill="#A3C844"/>
<path d="M20.9389 13.81C20.9389 13.7039 20.9203 13.6039 20.8766 13.5102C20.5686 12.8747 20.053 12.3635 19.4149 12.061C18.9804 11.8494 18.5175 11.7021 18.0406 11.6238C17.0101 11.4381 15.9579 11.4044 14.9176 11.524C14.6439 11.5592 14.3728 11.6114 14.1055 11.6801C14.1055 11.6926 14.1181 11.6989 14.1306 11.6989L14.243 11.73L14.3555 11.7612C15.5297 11.9861 16.6666 12.2359 17.7534 12.5296C18.5767 12.7004 19.3146 13.1532 19.8396 13.81C20.0301 14.0962 20.1696 14.4132 20.2519 14.747C20.2394 14.9031 20.1082 15.0468 19.8521 15.1842C19.4586 15.3903 19.0276 15.5589 18.5592 15.6964L17.9345 15.8775C17.4224 15.965 16.9164 16.0212 16.4105 16.0336C16.1993 16.0393 15.988 16.0246 15.7796 15.9899C15.7529 15.9838 15.725 15.9833 15.6981 15.9887C15.6713 15.9941 15.6458 16.0052 15.6235 16.0212C15.6109 16.0024 15.586 15.9899 15.5547 15.9838C14.6178 15.865 13.7745 15.584 13.0375 15.1342C12.2769 14.685 11.6528 14.0372 11.2323 13.2604C10.6702 12.1985 10.3141 11.0742 10.1704 9.87485C10.1577 9.75446 10.1577 9.63306 10.1704 9.51267C10.1767 9.46895 10.208 9.44388 10.2517 9.44388C10.3266 9.44388 10.389 9.44388 10.4453 9.46895C11.4197 9.79367 12.4191 9.93111 13.4435 9.87485C13.956 9.84381 14.4668 9.7874 14.9739 9.70622L15.2923 9.64997C16.2668 9.48761 16.9975 9.38762 17.4848 9.35017C18.0507 9.30163 18.6207 9.34813 19.1713 9.48761C19.7399 9.61236 20.2675 9.87966 20.7046 10.2641C21.1415 10.6488 21.4737 11.1382 21.6697 11.6863C21.9446 12.3922 22.0446 13.3041 21.982 14.4221C21.9509 14.9593 21.8509 15.4965 21.6697 16.0461C21.6697 16.0773 21.6448 16.0961 21.6136 16.0961L21.0015 16.0836C20.9952 16.0836 20.9889 16.0836 20.9889 16.0712C21.1764 15.1779 21.1764 14.4284 20.9764 13.8225C20.9764 13.81 20.9701 13.8037 20.9577 13.8037H20.9389V13.81ZM13.075 11.6989L13.6683 11.5551C13.7995 11.524 13.9369 11.4926 14.0806 11.4426C14.218 11.3928 14.3617 11.3552 14.5178 11.3303C15.03 11.2428 15.4798 11.1991 15.8795 11.2054L16.9352 11.224C17.3287 11.2365 17.7722 11.2865 18.2718 11.3803C18.8965 11.4989 19.4461 11.7112 19.927 12.0173C20.3185 12.2514 20.6512 12.5717 20.9002 12.9537C21.1493 13.3359 21.3077 13.7698 21.3636 14.2223L21.395 14.4472C21.4199 14.5595 21.4387 14.6721 21.4387 14.7844C21.4387 14.9156 21.4262 15.0342 21.4074 15.1591C21.3887 15.2842 21.3699 15.4091 21.3636 15.5277C21.3636 15.6464 21.345 15.7651 21.3325 15.8901C21.3325 15.9212 21.345 15.9338 21.3762 15.9338H21.4136C21.4511 15.915 21.4762 15.8901 21.4887 15.8463C21.5699 15.4965 21.6385 15.1779 21.6885 14.8968C21.726 14.6907 21.7448 14.4972 21.7385 14.3097V13.9599C21.7385 13.4539 21.7073 13.0667 21.6636 12.8106C21.5967 12.3378 21.462 11.8771 21.2638 11.4426C21.0402 11.0055 20.7197 10.6251 20.3268 10.3307C19.9339 10.0362 19.4787 9.8355 18.9964 9.74368C18.709 9.6813 18.4779 9.64997 18.2906 9.63131C17.5687 9.58278 16.8438 9.63321 16.1356 9.78114C15.9358 9.81247 15.7358 9.84366 15.5297 9.88739C15.0674 9.97483 14.5741 10.0497 14.0494 10.106C13.8432 10.1309 13.531 10.1435 13.1249 10.1435H12.7126C12.4191 10.1497 12.1193 10.1309 11.8007 10.0811C11.4986 10.0378 11.1985 9.98154 10.9013 9.91231C10.7764 9.88739 10.6576 9.84993 10.5453 9.79367C10.5015 9.78114 10.4827 9.79367 10.4827 9.83113C10.4641 9.99975 10.4703 10.156 10.5015 10.2934L10.5453 10.4807C10.6514 10.9831 10.7913 11.4776 10.9637 11.9612C11.1517 12.4545 11.3815 12.931 11.6509 13.3853L11.7633 13.5727C11.8319 13.6851 11.9132 13.7913 12.0068 13.885L12.5066 14.3846C12.6252 14.5033 12.7564 14.6095 12.9189 14.7158L13.431 15.028C13.8683 15.2654 14.3304 15.4466 14.8051 15.5527C15.1751 15.6414 15.5507 15.7041 15.9295 15.7401C16.3077 15.7758 16.6886 15.7737 17.0663 15.7338C18.0281 15.6402 18.9641 15.3692 19.8272 14.9344C19.9333 14.8781 19.9708 14.797 19.9396 14.6907C19.8135 14.2102 19.5185 13.7912 19.1088 13.5102C18.8079 13.2703 18.4677 13.0843 18.1032 12.9606C17.7597 12.8357 17.5222 12.7606 17.4036 12.7294C16.5402 12.5111 15.6717 12.3133 14.799 12.1361L13.9369 11.9487C13.6559 11.8737 13.3748 11.8112 13.0812 11.7487C13.0063 11.7363 13.0063 11.7175 13.0812 11.6989H13.075Z" fill="#A3C844"/>
<path d="M13.0751 11.6986C13.0126 11.7172 13.0126 11.736 13.0751 11.7484L13.9371 11.9421C14.2494 12.017 14.5429 12.0858 14.7992 12.1358C15.6736 12.3168 16.5356 12.5105 17.4038 12.7291C17.5287 12.7603 17.7598 12.8415 18.1034 12.9603C18.7474 13.182 19.3078 13.5963 19.7086 14.1471C19.8023 14.2969 19.8772 14.4781 19.9397 14.6904C19.9709 14.7967 19.9335 14.8779 19.8274 14.9341C18.9586 15.3711 18.0159 15.6421 17.0477 15.7335C16.7354 15.771 16.3607 15.7772 15.9234 15.7398C15.6299 15.7149 15.255 15.6523 14.7992 15.5524C14.1254 15.3999 13.4885 15.1154 12.9252 14.7155C12.7748 14.6196 12.6345 14.5087 12.5067 14.3844L12.007 13.8847C11.9133 13.791 11.8313 13.6861 11.7634 13.5724L11.6511 13.385L11.4886 13.1226C11.0416 12.2951 10.7235 11.404 10.5454 10.4804L10.5017 10.2931C10.4698 10.1413 10.4613 9.98533 10.4766 9.83084C10.4766 9.79338 10.5017 9.78085 10.5392 9.79338C10.6641 9.84964 10.7827 9.8871 10.9015 9.91829C11.1762 9.98081 11.4762 10.0371 11.8009 10.0808C12.1132 10.1306 12.4255 10.1494 12.7128 10.1432H13.1251C13.5312 10.1432 13.8434 10.1306 14.0496 10.1057C14.5743 10.0495 15.0676 9.98081 15.5299 9.88709C16.0155 9.78828 16.5053 9.71103 16.9977 9.65594C17.4274 9.61251 17.8598 9.60406 18.2908 9.63102C18.4781 9.64968 18.7092 9.68728 18.9966 9.74339C19.4774 9.83914 19.9309 10.0414 20.3232 10.3354C20.7155 10.6294 21.0371 11.0077 21.264 11.4423C21.4263 11.7547 21.5575 12.2107 21.6638 12.8103C21.7075 13.0664 21.7324 13.4536 21.7387 13.9597V14.3094C21.7387 14.4969 21.7261 14.6904 21.6887 14.8965C21.6387 15.1777 21.57 15.4963 21.4889 15.846C21.4844 15.8648 21.4752 15.8822 21.4621 15.8965C21.4488 15.9106 21.4323 15.9212 21.4138 15.9272C21.4019 15.9314 21.3892 15.9335 21.3764 15.9335C21.3452 15.9335 21.3326 15.921 21.3326 15.8898L21.3638 15.5274C21.3701 15.4088 21.3889 15.29 21.4075 15.1527C21.4622 14.841 21.4473 14.5211 21.3638 14.2157L21.3264 13.9783C21.2423 13.573 21.075 13.1894 20.8353 12.8518C20.5956 12.5143 20.2885 12.2301 19.9335 12.017C19.4263 11.6974 18.8621 11.4789 18.272 11.3737C17.7724 11.28 17.3289 11.23 16.9353 11.2176L15.8797 11.1925C15.4799 11.1925 15.0302 11.2363 14.518 11.3174C14.3619 11.3488 14.2182 11.3862 14.0808 11.4362L13.6685 11.5486L13.0751 11.6923V11.6986Z" fill="#AFD834"/>
<path d="M20.9392 13.8099C20.9392 13.8413 20.9392 13.8725 20.9267 13.9099C20.8518 14.2534 20.7394 14.597 20.6145 14.9218C20.5254 14.8437 20.4604 14.7418 20.4271 14.6283C20.3893 14.5222 20.3221 14.4289 20.2334 14.3597C20.2147 14.3472 20.1959 14.3409 20.1834 14.3472C20.1647 14.3472 20.1585 14.3721 20.1522 14.4034L20.1085 14.3034C20.0024 14.0785 19.921 13.9099 19.8399 13.8099C19.3149 13.1532 18.577 12.7004 17.7537 12.5296C16.5935 12.2207 15.4226 11.954 14.2432 11.73C14.2064 11.7178 14.1688 11.7074 14.1309 11.6988C14.1183 11.6988 14.1121 11.6925 14.1121 11.68V11.6675L14.1246 11.6551L14.4369 11.5988L14.9242 11.5239C15.9648 11.4065 17.0169 11.4422 18.0472 11.63C18.5719 11.7237 19.0342 11.8674 19.4214 12.0673C20.0538 12.3704 20.5646 12.8791 20.8706 13.5101C20.9206 13.6039 20.9392 13.7038 20.9392 13.8037V13.8099Z" fill="#86B22B"/>
<path d="M20.6078 14.9218L20.2829 15.6713C19.4319 16.1459 18.4876 16.4294 17.5158 16.5021C17.5085 16.5022 17.5014 16.4997 17.4957 16.4952C17.49 16.4906 17.4861 16.4842 17.4846 16.477C17.4846 16.4584 17.4846 16.4458 17.4972 16.4396C17.6846 16.2835 17.8281 16.096 17.9344 15.8774L18.5591 15.6963C19.0275 15.5651 19.4584 15.3902 19.852 15.1841C20.1018 15.0467 20.2392 14.903 20.2517 14.7469C20.2517 14.672 20.2267 14.5594 20.1518 14.4033C20.1518 14.372 20.1643 14.3534 20.1829 14.3408C20.1955 14.3408 20.2143 14.3408 20.2329 14.3596C20.3267 14.4408 20.3892 14.5282 20.4204 14.6282C20.4704 14.7531 20.5266 14.853 20.6078 14.9218Z" fill="#619614"/>
</svg>

<svg xmlns="http://www.w3.org/2000/svg" width="24" height="24" fill="none" viewBox="0 0 24 24">
    <path fill="#1483CB" d="m21.451 7.226-.337-.018a.16.16 0 0 1-.131-.075 9.6 9.6 0 0 0-2.73-2.861 10.12 10.12 0 0 0-6.927-1.749 10.1 10.1 0 0 0-4.99 1.98A9.4 9.4 0 0 0 2.6 10.849a13 13 0 0 0-.05 1.78 9.27 9.27 0 0 0 2.817 6.04 10.04 10.04 0 0 0 7.346 2.868c1.018-.05 1.911-.188 2.686-.431a9.93 9.93 0 0 0 5.584-4.254q.047-.074.262-.044h.006c.038 0 .094 0 .157-.031l.043-.013c-.23.538-.643 1.137-1.249 1.793a10.18 10.18 0 0 1-7.34 3.417q-.612.054-1.223-.019c-.244-.012-.425-.031-.55-.044a10.2 10.2 0 0 1-5.784-2.623 6 6 0 0 1-.825-.818 9.72 9.72 0 0 1-2.404-7.696 9.8 9.8 0 0 1 3.148-5.996 10.57 10.57 0 0 1 6.964-2.773 10.7 10.7 0 0 1 7.333 2.742c.431.393.85.85 1.25 1.361.287.369.512.737.687 1.118z"/>
    <path fill="#21A2DC" d="m21.45 7.226.132.394q.01.03-.025.031h-1.361a.07.07 0 0 1-.063-.037 8.7 8.7 0 0 0-2.96-2.936A9.276 9.276 0 0 0 6.097 5.84a8.45 8.45 0 0 0-2.692 6.496 8.42 8.42 0 0 0 2.386 5.515 8.9 8.9 0 0 0 2.467 1.812 9.26 9.26 0 0 0 9.919-1.05 9.1 9.1 0 0 0 1.967-2.248.3.3 0 0 1 .113-.02h1.3q.035.002.024.032l-.125.387-.044.013a.4.4 0 0 1-.162.031c-.144-.025-.231-.006-.262.044a9.93 9.93 0 0 1-8.27 4.685 5 5 0 0 1-.968-.032 10.04 10.04 0 0 1-7.32-3.915 9.27 9.27 0 0 1-1.824-6.74 9.4 9.4 0 0 1 3.742-6.346 10.1 10.1 0 0 1 7.433-1.955c2.072.27 4.01 1.176 5.546 2.592a9.6 9.6 0 0 1 1.656 1.999.18.18 0 0 0 .124.075l.344.019z"/>
    <path fill="#86B22B" d="M18.822 6.32q-1.265.038-2.53.026c-.244 0-.412-.032-.519-.088A6.97 6.97 0 0 0 6.485 8.97a6.33 6.33 0 0 0-.712 3.923 6.52 6.52 0 0 0 3.236 4.71 6.95 6.95 0 0 0 4.185.905 6.9 6.9 0 0 0 4.19-1.936c0-.025-.018-.038-.043-.038a7.2 7.2 0 0 1-2.236-.187l.519-.325a.2.2 0 0 1 .156-.031c.206.031.418.05.63.043a10 10 0 0 0 1.525-.156c-.107.22-.25.406-.438.563-.012.006-.012.018-.012.037l.031.025.188-.006c.999-.125 1.855-.4 2.58-.825a8.4 8.4 0 0 1-2.75 3.099 8.86 8.86 0 0 1-5.958 1.499q-3.187-.375-5.372-2.586a7.96 7.96 0 0 1-2.292-4.816 7.8 7.8 0 0 1 .262-3.086A8.24 8.24 0 0 1 7.591 5.16a8.95 8.95 0 0 1 6.059-1.412c1.699.238 3.204.881 4.51 1.95q.347.293.662.624"/>
    <path fill="#A3C844" d="M18.822 6.32c.375.37.712.788 1.03 1.269q.05.075-.043.075a495 495 0 0 0-4.279 0c-.256 0-.437-.02-.537-.07a5.6 5.6 0 0 0-1.718-.549 6 6 0 0 0-1.062-.037 3 3 0 0 0-.418.025 5.5 5.5 0 0 0-2.168.8 5 5 0 0 0-2.323 4.203 4.74 4.74 0 0 0 1.361 3.335 5.2 5.2 0 0 0 3.311 1.612 5.24 5.24 0 0 0 3.13-.637 7.1 7.1 0 0 0 2.236.187c.024 0 .043.013.043.038a.06.06 0 0 1-.019.043l-.312.25a6.9 6.9 0 0 1-4.872 1.662 6.75 6.75 0 0 1-3.173-.918 6.52 6.52 0 0 1-3.298-5.372 6.27 6.27 0 0 1 .775-3.267 6.66 6.66 0 0 1 2.96-2.81 6.55 6.55 0 0 1 2.749-.688 6.97 6.97 0 0 1 3.579.793c.106.05.275.082.518.082h.063c.887.006 1.705 0 2.467-.025"/>
    <path fill="#A3C844" d="M20.939 13.81a.7.7 0 0 0-.062-.3 3.1 3.1 0 0 0-1.462-1.449 5 5 0 0 0-1.374-.437 10.7 10.7 0 0 0-3.123-.1 7 7 0 0 0-.812.156c0 .013.012.019.025.019l.112.031.112.031a47 47 0 0 1 3.398.769 3.6 3.6 0 0 1 2.087 1.28c.19.286.33.603.412.937q-.018.233-.4.437a7 7 0 0 1-1.293.512l-.625.181c-.512.088-1.018.144-1.524.157a3.3 3.3 0 0 1-.63-.044.2.2 0 0 0-.156.031q-.02-.028-.07-.037c-.936-.119-1.78-.4-2.517-.85a4.87 4.87 0 0 1-1.805-1.874 9.6 9.6 0 0 1-1.062-3.385 1.7 1.7 0 0 1 0-.362.08.08 0 0 1 .082-.07.5.5 0 0 1 .193.026 8 8 0 0 0 2.999.406 16 16 0 0 0 1.53-.169l.318-.056q1.462-.243 2.193-.3a5.1 5.1 0 0 1 1.686.138 3.44 3.44 0 0 1 2.499 2.198c.275.706.375 1.618.312 2.736a6.3 6.3 0 0 1-.312 1.624c0 .031-.025.05-.056.05L21 16.084c-.006 0-.012 0-.012-.013.187-.893.187-1.643-.013-2.249q0-.018-.018-.018h-.02zm-7.864-2.111.593-.144c.132-.031.269-.062.413-.112q.203-.075.437-.113a7.5 7.5 0 0 1 1.361-.125l1.056.019q.589.017 1.337.156a4.7 4.7 0 0 1 1.655.637 3 3 0 0 1 1.437 2.205l.031.225c.025.113.044.225.044.337 0 .132-.013.25-.032.375-.018.125-.037.25-.043.369 0 .118-.019.237-.032.362q-.001.045.044.044h.038a.13.13 0 0 0 .075-.088c.08-.35.15-.668.2-.95q.057-.306.05-.586v-.35a7 7 0 0 0-.075-1.15 5 5 0 0 0-.4-1.367 3.22 3.22 0 0 0-2.268-1.7 6 6 0 0 0-.705-.112 8 8 0 0 0-2.155.15c-.2.031-.4.063-.606.106q-.694.134-1.48.219a8 8 0 0 1-.925.037h-.412a5 5 0 0 1-.912-.062q-.454-.065-.9-.169a1.4 1.4 0 0 1-.356-.118q-.063-.019-.062.037-.028.255.018.462l.044.188q.16.754.419 1.48.283.741.687 1.424l.112.188q.103.17.244.312l.5.5c.118.118.25.225.412.33l.512.313c.437.237.9.419 1.374.525q.556.133 1.125.187t1.136-.006a7.8 7.8 0 0 0 2.761-.8q.16-.084.113-.243c-.127-.48-.422-.9-.831-1.18a3.3 3.3 0 0 0-1.006-.55 9 9 0 0 0-.7-.232 57 57 0 0 0-2.604-.593l-.862-.187a17 17 0 0 0-.856-.2q-.112-.021 0-.05z"/>
    <path fill="#AFD834" d="M13.075 11.699q-.093.029 0 .05l.862.193c.312.075.606.144.862.194a63 63 0 0 1 2.605.593c.125.031.356.113.7.231a3.3 3.3 0 0 1 1.605 1.187q.138.225.23.543.047.16-.112.244a7.8 7.8 0 0 1-2.78.8 5.6 5.6 0 0 1-1.124.006 9 9 0 0 1-1.124-.188 5.2 5.2 0 0 1-1.874-.836 2.6 2.6 0 0 1-.418-.332l-.5-.5a1.6 1.6 0 0 1-.244-.312l-.112-.187-.162-.262a9.2 9.2 0 0 1-.944-2.643l-.043-.187a1.5 1.5 0 0 1-.025-.462c0-.038.025-.05.062-.038.125.057.244.094.363.125q.411.097.899.163c.312.05.624.068.912.062h.412c.406 0 .718-.012.925-.037a16 16 0 0 0 1.48-.219q.729-.148 1.468-.231.646-.065 1.293-.025c.187.019.418.056.706.112a3.28 3.28 0 0 1 2.267 1.7q.242.468.4 1.367c.043.256.068.644.075 1.15v.35c0 .187-.013.38-.05.586q-.077.424-.2.95a.114.114 0 0 1-.113.088q-.044.001-.043-.044l.03-.363c.007-.118.026-.237.044-.374.055-.312.04-.632-.043-.937l-.038-.238a3 3 0 0 0-1.393-1.961 4.7 4.7 0 0 0-1.661-.643 9 9 0 0 0-1.337-.156l-1.055-.025c-.4 0-.85.043-1.362.124q-.233.046-.437.12l-.412.112-.594.143z"/>
    <path fill="#86B22B" d="M20.94 13.81c0 .031 0 .063-.013.1a7 7 0 0 1-.312 1.012.6.6 0 0 1-.188-.294.6.6 0 0 0-.194-.268q-.029-.021-.05-.013c-.018 0-.024.025-.03.056l-.044-.1c-.107-.225-.188-.393-.27-.493a3.6 3.6 0 0 0-2.085-1.28 50 50 0 0 0-3.51-.8 1 1 0 0 0-.113-.031q-.02 0-.019-.019v-.012l.013-.013.312-.056.487-.075a10.7 10.7 0 0 1 3.123.106c.525.094.987.237 1.374.437a3.1 3.1 0 0 1 1.45 1.443c.05.094.068.194.068.294z"/>
    <path fill="#619614" d="m20.608 14.922-.325.75a6.7 6.7 0 0 1-2.767.83.03.03 0 0 1-.031-.025c0-.019 0-.031.012-.037a1.7 1.7 0 0 0 .437-.563l.625-.18c.468-.132.9-.307 1.293-.513.25-.137.387-.281.4-.437a.8.8 0 0 0-.1-.344q.002-.045.03-.062c.014 0 .032 0 .05.019a.6.6 0 0 1 .188.268c.05.125.107.225.188.294"/>
</svg>
